X:1
T:Title
%%score { 1 | 2 }
L:1/8
M:4/4
K:F
V:1 treble nm="Grand Piano"
V:2 bass 
V:1
 A4 | A4 F4 | G4 A4 | F4 E4 | D4 A4 | A4 G4 | c4 A4 | F4 G4 | A4 A4 | c4 d4 | f4 e4 | d4 ^c4 | %12
 d4 d4 | e4 d4 | c4 =B4 | A4 _A4 | A4 d4 | c4 =B4 | c4 A4 | A4 G4 | F4 A4 | =B4 A4 | F4 G4 | %23
 F6 E2 | D8 |] %25
V:2
 D,4 | ^C,4 D,4 | E,2 D,2 ^C,4 | D,2 G,,2 A,,4 | D,4 D,,4 | F,,2 F,2 E,2 D,2 | E,4 F,2 E,2 | %7
 D,2 C,2 B,,4 | A,,4 A,,4 | A,2 G,2 F,2 E,2 | D,4 E,4 | F,2 G,2 A,2 A,,2 | D,2 C,2 B,,4 | C,4 G,4 | %14
 A,2 C,2 D,2 E,2 | F,2 C,2 D,2 E,2 | A,,2 (3G,F,E, F,2 D,2 | E,2 F,2 G,2 F,2 | E,2 C,2 F,2 A,,2 | %19
 A,,4 C,2 C,,2 | F,,2 E,2 D,2 F,,2 | G,,2 G,2 A,2 A,,2 | B,,2 A,,2 G,,2 E,2 | F,2 G,2 A,2 A,,2 | %24
 D,2 A,,2 D,,4 |] %25

